svgs/thin/square-check.svg

<svg xmlns="http://www.w3.org/2000/svg" viewBox="0 0 448 512"><!--! Font Awesome Pro 6.4.2 by @fontawesome - https://fontawesome.com License - https://fontawesome.com/license (Commercial License) Copyright 2023 Fonticons, Inc. --><path d="M64 48C37.5 48 16 69.5 16 96V416c0 26.5 21.5 48 48 48H384c26.5 0 48-21.5 48-48V96c0-26.5-21.5-48-48-48H64zM0 96C0 60.7 28.7 32 64 32H384c35.3 0 64 28.7 64 64V416c0 35.3-28.7 64-64 64H64c-35.3 0-64-28.7-64-64V96zM325.7 197.7l-128 128c-3.1 3.1-8.2 3.1-11.3 0l-64-64c-3.1-3.1-3.1-8.2 0-11.3s8.2-3.1 11.3 0L192 308.7 314.3 186.3c3.1-3.1 8.2-3.1 11.3 0s3.1 8.2 0 11.3z"/></svg>

<svg xmlns="http://www.w3.org/2000/svg" viewBox="0 0 448 512"><!--! Font Awesome Pro 6.1.1 by @fontawesome - https://fontawesome.com License - https://fontawesome.com/license (Commercial License) Copyright 2022 Fonticons, Inc. --><path d="M197.7 325.7C194.5 328.8 189.5 328.8 186.3 325.7L122.3 261.7C119.2 258.5 119.2 253.5 122.3 250.3C125.5 247.2 130.5 247.2 133.7 250.3L192 308.7L314.3 186.3C317.5 183.2 322.5 183.2 325.7 186.3C328.8 189.5 328.8 194.5 325.7 197.7L197.7 325.7zM0 96C0 60.65 28.65 32 64 32H384C419.3 32 448 60.65 448 96V416C448 451.3 419.3 480 384 480H64C28.65 480 0 451.3 0 416V96zM16 96V416C16 442.5 37.49 464 64 464H384C410.5 464 432 442.5 432 416V96C432 69.49 410.5 48 384 48H64C37.49 48 16 69.49 16 96z"/></svg>
